shared/images/iconfont/kb-iconfont-team-join-16.svg

<?xml version="1.0" encoding="UTF-8"?>
<svg width="16px" height="16px" viewBox="0 0 16 16" version="1.1" xmlns="http://www.w3.org/2000/svg" xmlns:xlink="http://www.w3.org/1999/xlink">
    <!-- Generator: sketchtool 49.2 (51160) - http://www.bohemiancoding.com/sketch -->
    <title>368AC6F5-B265-4D77-8F6B-8A6CC487FFC9</title>
    <desc>Created with sketchtool.</desc>
    <defs></defs>
    <g id="Colors,-icons" stroke="none" stroke-width="1" fill="none" fill-rule="evenodd">
        <g id="Icons-2" transform="translate(-399.000000, -218.000000)">
            <g id="kb-iconfont-team-join-16" transform="translate(399.000000, 218.000000)">
                <g id="Group-17">
                    <rect id="Mask" x="-1.13686838e-13" y="0" width="16" height="16"></rect>
                    <path d="M6.56493164,11.7348635 L7.85116052,10.4956426 C7.90040417,10.498534 7.95003088,10.5 8,10.5 C9.38071187,10.5 10.5,9.38071187 10.5,8 C10.5,6.61928813 9.38071187,5.5 8,5.5 C7.94999556,5.5 7.90033401,5.50146809 7.85105611,5.50436352 L6.56494848,4.26512998 C7.01039466,4.09386693 7.49423543,4 8,4 C10.209139,4 12,5.790861 12,8 C12,10.209139 10.209139,12 8,12 C7.49422906,12 7.01038247,11.9061307 6.56493164,11.7348635 Z M2,5.20560682 L1.23571494,5.20560682 C0.792072186,5.20560682 0.372575174,5.30898703 -2.88657986e-15,5.49297135 L0,4 C0,1.790861 1.790861,8.8817842e-16 4,8.8817842e-16 L12,8.8817842e-16 C14.209139,8.8817842e-16 16,1.790861 16,4 L16,12 C16,14.209139 14.209139,16 12,16 L4,16 C1.790861,16 0,14.209139 0,12 L0,10.5072559 C0.372575174,10.6912402 0.792072186,10.7946205 1.23571494,10.7946205 L2,10.7946205 L2,12 C2,13.1045695 2.8954305,14 4,14 L12,14 C13.1045695,14 14,13.1045695 14,12 L14,4 C14,2.8954305 13.1045695,2 12,2 L4,2 C2.8954305,2 2,2.8954305 2,4 L2,5.20560682 Z M5.07333333,5.18274109 L8,8.00274109 L5.07333333,10.8227411 C4.89541575,10.9992242 4.62981743,11.0534769 4.39694109,10.9609049 C4.16406475,10.868333 4.00819825,10.6465415 4,10.3960744 L4,9.00274109 L1,9.00274109 C0.44771525,9.00274109 0,8.55502584 0,8.00274109 C0,7.45045634 0.44771525,7.00274109 1,7.00274109 L4,7.00274109 L4,5.60940776 C4.00819825,5.3589407 4.16406475,5.13714923 4.39694109,5.04457726 C4.62981743,4.9520053 4.89541575,5.00625797 5.07333333,5.18274109 Z" id="Combined-Shape" fill="#000000" fill-rule="nonzero"></path>
                </g>
            </g>
        </g>
    </g>
</svg>

<svg xmlns="http://www.w3.org/2000/svg" width="16" height="16" viewBox="0 0 16 16">
    <g fill="none" fill-rule="evenodd">
        <path d="M0 0h16v16H0z"/>
        <path fill="#000" fill-rule="nonzero" d="M6.565 11.735l1.286-1.24a2.5 2.5 0 1 0 0-4.991L6.565 4.265a4 4 0 1 1 0 7.47zM2 5.205h-.764c-.444 0-.863.104-1.236.288V4a4 4 0 0 1 4-4h8a4 4 0 0 1 4 4v8a4 4 0 0 1-4 4H4a4 4 0 0 1-4-4v-1.493c.373.184.792.288 1.236.288H2V12a2 2 0 0 0 2 2h8a2 2 0 0 0 2-2V4a2 2 0 0 0-2-2H4a2 2 0 0 0-2 2v1.206zm3.073-.022L8 8.003l-2.927 2.82A.63.63 0 0 1 4 10.396V9.003H1a1 1 0 1 1 0-2h3V5.609a.63.63 0 0 1 1.073-.426z"/>
    </g>
</svg>
